X: 14
T:Heart of Oak,primo. JBa.14
M:C|
L:1/8
Q:100
C:Dr. William Boyce,1759
S:Joseph Barnes MS,Carlisle,1762.
R:Air
O:England
A:Carlisle
N:Composed for 'Harlequin's Invasion' at the Garrick Theatre in 1759..
N:Two part arrangement - second part in bass clef..the standard words
N:are
N:included with this tune..Words of first verse written under stave..u
N:and d are in the ms.. At "symphony" "Sy" is written under the
N:stave..symphony = the West Gallery Music term for an instrumental
N:break..NB2 - could be a bar line here. Rest added by me to make bar
N:add
N:up and match bass line..CGr
Z:vmp.C Graebe.
K:C major
z/ G | c2 c c c2 e d | c2 B A G2 z G | A2 A B c2 c d | e2 f d e2 z G |!
c2  E F G2 A B | c2 E F G2 z d | e2"u"d "d"c g2 B c | d2 d D G2 |!
"'Symphony'"z/ G/^F/E/ DC/B/,A,B, "Chorus"  d>d | d2 B c d2 e> e |\
 e2 c> d e2 z e |!
 (dc) B e c A z2 |c c G2 E<C z G | (AB) c d e2 d c | g2 G B c2 |]
